svgs/thin/square-poll-horizontal.svg

<svg xmlns="http://www.w3.org/2000/svg" viewBox="0 0 448 512"><!--! Font Awesome Pro 6.4.2 by @fontawesome - https://fontawesome.com License - https://fontawesome.com/license (Commercial License) Copyright 2023 Fonticons, Inc. --><path d="M432 96c0-26.5-21.5-48-48-48L64 48C37.5 48 16 69.5 16 96l0 320c0 26.5 21.5 48 48 48H384c26.5 0 48-21.5 48-48l0-320zM384 32c35.3 0 64 28.7 64 64l0 320c0 35.3-28.7 64-64 64H64c-35.3 0-64-28.7-64-64V96C0 60.7 28.7 32 64 32H384zM112 160c0 8.8 7.2 16 16 16l96 0c8.8 0 16-7.2 16-16s-7.2-16-16-16l-96 0c-8.8 0-16 7.2-16 16zm0 96c0 8.8 7.2 16 16 16H320c8.8 0 16-7.2 16-16s-7.2-16-16-16H128c-8.8 0-16 7.2-16 16zm0 96c0 8.8 7.2 16 16 16h32c8.8 0 16-7.2 16-16s-7.2-16-16-16H128c-8.8 0-16 7.2-16 16zm16-224l96 0c17.7 0 32 14.3 32 32s-14.3 32-32 32l-96 0c-17.7 0-32-14.3-32-32s14.3-32 32-32zm0 96H320c17.7 0 32 14.3 32 32s-14.3 32-32 32H128c-17.7 0-32-14.3-32-32s14.3-32 32-32zm0 96h32c17.7 0 32 14.3 32 32s-14.3 32-32 32H128c-17.7 0-32-14.3-32-32s14.3-32 32-32z"/></svg>

<svg xmlns="http://www.w3.org/2000/svg" viewBox="0 0 448 512"><!--! Font Awesome Pro 6.1.1 by @fontawesome - https://fontawesome.com License - https://fontawesome.com/license (Commercial License) Copyright 2022 Fonticons, Inc. --><path d="M224 128C241.7 128 256 142.3 256 160C256 177.7 241.7 192 224 192H128C110.3 192 96 177.7 96 160C96 142.3 110.3 128 128 128H224zM128 176H224C232.8 176 240 168.8 240 160C240 151.2 232.8 144 224 144H128C119.2 144 112 151.2 112 160C112 168.8 119.2 176 128 176zM320 224C337.7 224 352 238.3 352 256C352 273.7 337.7 288 320 288H128C110.3 288 96 273.7 96 256C96 238.3 110.3 224 128 224H320zM128 272H320C328.8 272 336 264.8 336 256C336 247.2 328.8 240 320 240H128C119.2 240 112 247.2 112 256C112 264.8 119.2 272 128 272zM160 320C177.7 320 192 334.3 192 352C192 369.7 177.7 384 160 384H128C110.3 384 96 369.7 96 352C96 334.3 110.3 320 128 320H160zM128 368H160C168.8 368 176 360.8 176 352C176 343.2 168.8 336 160 336H128C119.2 336 112 343.2 112 352C112 360.8 119.2 368 128 368zM384 32C419.3 32 448 60.65 448 96V416C448 451.3 419.3 480 384 480H64C28.65 480 0 451.3 0 416V96C0 60.65 28.65 32 64 32H384zM384 48H64C37.49 48 16 69.49 16 96V416C16 442.5 37.49 464 64 464H384C410.5 464 432 442.5 432 416V96C432 69.49 410.5 48 384 48z"/></svg>
